X:1
T:Sheehan's Reel
M:C|
L:1/8
K:G
G2 BG DG BG|AB cA BG GB|AE AB cB cA|EA AG FD EF|
G2 BG AG Bd|cB AB cd ef|ge dB c2 Bc|dB cA BG G2 :|
g2 bg dg bg|gb ag fd de|f2 af df af|gb ag fd df|
g2 bg dg bg|gb ag fd ef|(3gfe dB c2 Bc|dB cA BG G2 :|
